icons/solid/map.svg

<svg width="24" height="24" viewBox="0 0 24 24" fill="none" xmlns="http://www.w3.org/2000/svg">
<path fill-rule="evenodd" clip-rule="evenodd" d="M8.16147 2.58076C8.68934 2.31683 9.31066 2.31683 9.83853 2.58076L14.8323 5.07765C14.9379 5.13043 15.0621 5.13043 15.1677 5.07765L19.0365 3.14326C20.2832 2.51992 21.75 3.42647 21.75 4.82031V17.3047C21.75 18.0149 21.3487 18.6642 20.7135 18.9818L15.8385 21.4193C15.3107 21.6832 14.6893 21.6832 14.1615 21.4193L9.16771 18.9224C9.06213 18.8696 8.93787 18.8696 8.8323 18.9224L4.96353 20.8568C3.71683 21.4801 2.25 20.5736 2.25 19.1797V6.69531C2.25 5.98512 2.65125 5.33587 3.28647 5.01826L8.16147 2.58076ZM9 6.00002C9.41421 6.00002 9.75 6.3358 9.75 6.75002V15C9.75 15.4142 9.41421 15.75 9 15.75C8.58579 15.75 8.25 15.4142 8.25 15V6.75002C8.25 6.3358 8.58579 6.00002 9 6.00002ZM15.75 9.00002C15.75 8.5858 15.4142 8.25002 15 8.25002C14.5858 8.25002 14.25 8.5858 14.25 9.00002V17.25C14.25 17.6642 14.5858 18 15 18C15.4142 18 15.75 17.6642 15.75 17.25V9.00002Z" fill="#0F172A"/>
</svg>

<svg xmlns="http://www.w3.org/2000/svg" viewBox="0 0 24 24" fill="currentColor" aria-hidden="true">
  <path fill-rule="evenodd" d="M8.161 2.58a1.875 1.875 0 011.678 0l4.993 2.498c.106.052.23.052.336 0l3.869-1.935A1.875 1.875 0 0121.75 4.82v12.485c0 .71-.401 1.36-1.037 1.677l-4.875 2.437a1.875 1.875 0 01-1.676 0l-4.994-2.497a.375.375 0 00-.336 0l-3.868 1.935A1.875 1.875 0 012.25 19.18V6.695c0-.71.401-1.36 1.036-1.677l4.875-2.437zM9 6a.75.75 0 01.75.75V15a.75.75 0 01-1.5 0V6.75A.75.75 0 019 6zm6.75 3a.75.75 0 00-1.5 0v8.25a.75.75 0 001.5 0V9z" clip-rule="evenodd"/>
</svg>
